svg/food/feeder_fill.svg

<svg xmlns="http://www.w3.org/2000/svg" width="24" height="24" viewBox="0 0 24 24"><g fill="none" fill-rule="evenodd"><path d="M24,0 L24,24 L0,24 L0,0 L24,0 Z M12.5935,23.2578 L12.5819,23.2595 L12.5109,23.295 L12.4919,23.2987 L12.4767,23.295 L12.4057,23.2595 C12.3958,23.2564 12.387,23.259 12.3821,23.2649 L12.378,23.2758 L12.3609,23.7031 L12.3659,23.7235 L12.3769,23.7357 L12.4805,23.8097 L12.4953,23.8136 L12.5071,23.8097 L12.6107,23.7357 L12.6233,23.7197 L12.6267,23.7031 L12.6096,23.2758 C12.6076,23.2657 12.601,23.2593 12.5935,23.2578 Z M12.8584,23.1453 L12.8445,23.1473 L12.6598,23.2397 L12.6499,23.2499 L12.6472,23.2611 L12.6651,23.6906 L12.6699,23.7034 L12.6784,23.7105 L12.8793,23.8032 C12.8914,23.8069 12.9022,23.803 12.9078,23.7952 L12.9118,23.7812 L12.8777,23.1665 C12.8753,23.1546 12.8674,23.147 12.8584,23.1453 Z M12.143,23.1473 C12.1332,23.1424 12.1222,23.1453 12.1156,23.1526 L12.1099,23.1665 L12.0758,23.7812 C12.0751,23.7927 12.0828,23.8019 12.0926,23.8046 L12.1083,23.8032 L12.3092,23.7105 L12.3186,23.7024 L12.3225,23.6906 L12.3404,23.2611 L12.3372,23.2485 L12.3278,23.2397 L12.143,23.1473 Z"/><path fill="#09244B" d="M13.1785,1.9711 C14.3515,2.55762 14.9148,3.91745 14.5,5.16165 L14.2648,5.86738 L14.3513,5.89623 C15.861,6.39944 17.1089,7.48174 17.8205,8.90504 L17.8943,9.05263 C18.1087,9.48129 17.9862,9.9903 17.6273,10.2788 C18.1691,11.0302 18.3937,12.0156 18.1694,12.962 C17.9564,13.8608 17.7999,14.7789 17.7999,15.4998 C17.7999,16.2208 17.9564,17.1389 18.1694,18.0377 C18.6203,19.9399 17.2573,21.9998 15.1511,21.9998 L8.8487,21.9998 C6.74254,21.9998 5.37947,19.9399 5.83038,18.0377 C6.04344,17.1389 6.1999,16.2208 6.1999,15.4998 C6.1999,14.7789 6.04344,13.8608 5.83038,12.962 C5.60605,12.0156 5.83071,11.0302 6.3725,10.2788 C6.01357,9.9903 5.89113,9.48129 6.10547,9.05263 L6.17926,8.90504 C6.84904824,7.56546353 7.99385377,6.52794934 9.38481584,5.99099462 L9.73498,5.86738 L9.49974,5.16165 C9.085,3.91745 9.64826,2.55762 10.8213,1.9711 C11.5632,1.60013 12.4365,1.60013 13.1785,1.9711 Z M10.9999,15.9998 L8.18335,15.9998 C8.14212,16.6525 8.02803,17.3447 7.89011,17.9939 L7.94460625,17.9983125 L7.94460625,17.9983125 L10.9999,17.9998 C11.5522,17.9998 11.9999,17.5521 11.9999,16.9998 C11.9999,16.4476 11.5522,15.9998 10.9999,15.9998 Z M10.9999,12.9998 L7.88884,12.9998 C8.02733,13.6507 8.14199,14.3452 8.18335,14.9998 L10.9999,14.9998 C11.5522,14.9998 11.9999,14.5521 11.9999,13.9998 C11.9999,13.4476 11.5522,12.9998 10.9999,12.9998 Z M12.2841,3.75995 C12.1052,3.67051 11.8946,3.67051 11.7157,3.75995 C11.4643222,3.88564778 11.3290926,4.15866407 11.3723782,4.42846808 L11.3971,4.5292 L11.7905,5.70927 C12.0369941,6.44895 11.6752889,7.24494114 10.9766725,7.55444214 L10.8418,7.60664 L10.2809,7.79359 C9.57203,8.02989 8.94971,8.45771 8.47792,9.0216 L8.66121375,9.00533875 L8.66121375,9.00533875 L8.8487,8.99984 L15.1511,8.99984 C15.2774,8.99984 15.4011,9.00725 15.5219,9.0216 C15.1025222,8.52036444 14.5642309,8.12664099 13.9519049,7.87937394 L13.7189,7.79359 L13.158,7.60664 C12.4183294,7.36007059 11.9986145,6.59308595 12.1701435,5.84848738 L12.2093,5.70927 L12.6027,4.5292 C12.7027,4.22922 12.5669,3.90136 12.2841,3.75995 Z"/></g></svg>

<svg xmlns="http://www.w3.org/2000/svg" width="24" height="24"><g fill="none" fill-rule="evenodd"><path d="M24 0v24H0V0zM12.594 23.258l-.012.002-.071.035-.02.004-.014-.004-.071-.036c-.01-.003-.019 0-.024.006l-.004.01-.017.428.005.02.01.013.104.074.015.004.012-.004.104-.074.012-.016.004-.017-.017-.427c-.002-.01-.009-.017-.016-.018m.264-.113-.014.002-.184.093-.01.01-.003.011.018.43.005.012.008.008.201.092c.012.004.023 0 .029-.008l.004-.014-.034-.614c-.003-.012-.01-.02-.02-.022m-.715.002a.023.023 0 0 0-.027.006l-.006.014-.034.614c0 .012.007.02.017.024l.015-.002.201-.093.01-.008.003-.011.018-.43-.003-.012-.01-.01z"/><path fill="#09244B" d="M13.179 1.971a2.635 2.635 0 0 1 1.321 3.19l-.235.706.086.03a6 6 0 0 1 3.47 3.008l.073.148a1 1 0 0 1-.267 1.226c.542.751.767 1.737.542 2.683-.213.899-.37 1.817-.37 2.538 0 .72.157 1.639.37 2.538C18.62 19.94 17.257 22 15.151 22H8.85c-2.106 0-3.47-2.06-3.019-3.962.213-.9.37-1.817.37-2.538 0-.721-.157-1.64-.37-2.538-.224-.946 0-1.932.542-2.683a1 1 0 0 1-.267-1.226l.074-.148a6 6 0 0 1 3.206-2.914l.35-.124-.235-.705a2.635 2.635 0 0 1 3.678-3.19M10.999 16H8.184a14.098 14.098 0 0 1-.293 1.994l.055.004L11 18a1 1 0 1 0 0-2m0-3H7.89c.138.65.253 1.345.294 2H11a1 1 0 1 0 0-2m1.285-9.24a.636.636 0 0 0-.912.668l.025.101.393 1.18a1.5 1.5 0 0 1-.813 1.845l-.135.053-.561.187a4 4 0 0 0-1.803 1.228l.183-.017L8.85 9h6.302c.126 0 .25.007.37.022a4 4 0 0 0-1.57-1.143l-.232-.085-.561-.187a1.5 1.5 0 0 1-.988-1.759l.04-.139.393-1.18a.635.635 0 0 0-.319-.769"/></g></svg>
